images/ico-hand-arrow-up.svg

<svg xmlns="http://www.w3.org/2000/svg" width="44" height="31" fill="none" viewBox="0 0 44 31"><path fill="#000638" fill-rule="evenodd" d="M4.01213 28.0704C4.03377 28.3447 4.18161 28.6027 4.4624 28.6183C5.33051 28.6664 6.20117 28.6899 7.07252 28.6909C9.71241 29.0973 12.3615 29.1782 14.9782 28.9344C14.4733 29.0363 13.9663 29.1281 13.4573 29.2047C11.6151 29.4796 9.74767 29.5779 7.87762 29.4858C6.48205 29.4176 4.60331 29.1963 3.46058 27.9292C3.64403 27.9782 3.82789 28.0246 4.01213 28.0704ZM23.8747 26.162C21.7837 26.8197 19.614 27.2945 17.396 27.5816C20.3353 27.0814 23.1795 26.3177 25.8557 25.261C25.207 25.5802 24.5465 25.8807 23.8747 26.162ZM34.3341 17.5282C34.6303 17.2469 34.9241 16.959 35.2152 16.6668C32.6581 19.7362 29.534 22.2451 26.0556 24.0498C23.2461 25.5072 20.2635 26.4924 17.1864 27.0693C19.6463 26.4177 22.0387 25.5345 24.3305 24.4294C27.9727 22.6726 31.3613 20.3558 34.3341 17.5282ZM33.6357 20.0686C35.529 17.9715 37.2263 15.6201 38.6861 13.0462C37.4772 15.7438 35.6905 18.0852 33.6357 20.0686ZM39.5339 8.511C39.5259 9.39548 39.466 10.2525 39.3711 11.0892C39.2018 10.9357 39.0106 10.8118 38.8226 10.737C39.0764 10.0098 39.3161 9.27092 39.5339 8.511ZM42.7575 12.709C42.8232 13.4132 42.8938 14.1187 42.9665 14.8247C42.8831 14.8383 42.8075 14.8636 42.7457 14.9007C42.7434 14.6277 42.7356 14.3532 42.7312 14.0798C42.74 13.6227 42.7487 13.1656 42.7575 12.709ZM21.4827 28.1011C22.4388 27.7012 23.3764 27.2537 24.2945 26.7642C24.839 26.5387 25.3797 26.2998 25.9143 26.0442C32.7346 22.7802 40.3048 16.3471 40.8795 6.98097C40.8784 7.90885 40.9125 8.84277 40.9305 9.76757C40.9831 12.5752 41.0655 15.3854 41.172 18.1964C41.1989 18.9054 42.0631 18.9842 42.1134 18.2913C42.1394 17.931 42.1647 17.5706 42.1907 17.2103C42.2133 17.1546 42.2295 17.0929 42.2347 17.0201C42.2578 16.7129 42.2752 16.4046 42.2951 16.097C42.318 16.456 42.3435 16.8148 42.3794 17.1756C42.4456 17.8515 43.1894 17.9848 43.3297 17.3956C43.4011 17.3153 43.4493 17.2006 43.4535 17.0456C43.4655 16.563 43.4736 16.08 43.4812 15.597C43.8049 11.2351 43.9578 6.84896 43.9182 2.4342C43.9165 2.2386 43.852 2.09417 43.758 1.99801C43.76 1.72778 43.601 1.44838 43.3859 1.39168C43.5939 0.967628 43.1986 0.279361 42.7787 0.59203C40.2278 2.48904 37.6864 4.41951 35.4451 6.74069C33.9909 7.88993 32.5819 9.11208 31.2321 10.4185C30.842 10.7967 31.4102 11.5024 31.8052 11.1451C31.9471 11.0148 32.0914 10.8881 32.2342 10.7592C32.1313 11.0551 32.3449 11.3629 32.6022 11.451C32.3914 11.6806 32.1792 11.9075 31.9685 12.1371C31.5469 12.5979 32.1708 13.3714 32.6204 12.9633C34.9674 10.8345 37.3143 8.70566 39.6617 6.57643C39.5972 6.75578 39.5332 6.93516 39.4659 7.11297C37.9215 10.655 35.4148 13.5415 32.8307 16.044C29.9635 18.8212 26.7365 21.1071 23.2781 22.8434C17.2863 25.8518 10.6765 27.158 3.97199 26.6867C3.22093 26.5776 2.47071 26.4499 1.7224 26.3031C1.60996 26.2809 1.49886 26.3314 1.41199 26.4185C1.19025 26.3878 0.968487 26.3621 0.746774 26.328C0.235077 26.2485 0.106538 27.1906 0.618013 27.3626C0.942487 27.4716 1.26772 27.5744 1.59333 27.6744C3.24491 30.9133 7.50994 30.7023 10.1952 30.6069C14.0926 30.4683 17.8963 29.6028 21.4827 28.1011Z" clip-rule="evenodd"/></svg>

<svg xmlns="http://www.w3.org/2000/svg" width="44" height="31" fill="none" viewBox="0 0 44 31"><path fill="#000638" fill-rule="evenodd" d="M4.012 28.07c.022.275.17.533.45.548q1.304.072 2.61.073c2.64.406 5.29.487 7.906.243q-.758.155-1.52.27c-1.843.276-3.71.374-5.58.282-1.396-.068-3.275-.29-4.417-1.557q.275.074.551.141m19.863-1.908a38 38 0 0 1-6.479 1.42c2.94-.5 5.784-1.264 8.46-2.321q-.974.48-1.981.901m10.46-8.634q.444-.422.88-.861a29.8 29.8 0 0 1-9.16 7.383c-2.809 1.457-5.791 2.442-8.869 3.02a40 40 0 0 0 7.145-2.64 39.3 39.3 0 0 0 10.003-6.902m-.7 2.54a39.7 39.7 0 0 0 5.051-7.022c-1.209 2.698-2.995 5.04-5.05 7.023m5.899-11.557a25 25 0 0 1-.163 2.578 1.9 1.9 0 0 0-.548-.352 41 41 0 0 0 .71-2.226m3.224 4.198q.099 1.057.209 2.116a.6.6 0 0 0-.221.076q-.006-.41-.015-.821zM21.483 28.101q1.434-.601 2.811-1.337a33 33 0 0 0 1.62-.72c6.82-3.264 14.39-9.697 14.965-19.063 0 .928.034 1.862.052 2.787.052 2.807.135 5.617.241 8.428.027.71.891.788.941.095l.078-1.08a.6.6 0 0 0 .044-.19c.023-.308.04-.616.06-.924.023.359.048.718.084 1.079.067.676.81.809.95.22a.53.53 0 0 0 .124-.35q.017-.725.028-1.449c.324-4.362.477-8.748.437-13.163a.6.6 0 0 0-.16-.436c.002-.27-.157-.55-.372-.606.208-.424-.187-1.113-.607-.8-2.551 1.897-5.093 3.828-7.334 6.149a56 56 0 0 0-4.213 3.678c-.39.378.178 1.083.573.726q.213-.194.43-.386c-.104.296.11.604.367.692l-.633.686c-.422.46.202 1.234.651.826l7.042-6.387q-.096.27-.196.537c-1.544 3.542-4.051 6.428-6.635 8.931a38.7 38.7 0 0 1-9.553 6.8c-5.992 3.008-12.601 4.314-19.306 3.843a46 46 0 0 1-2.25-.384c-.112-.022-.223.028-.31.116-.222-.031-.444-.057-.665-.091-.512-.08-.64.863-.129 1.035q.487.162.975.311c1.652 3.24 5.917 3.028 8.602 2.933 3.898-.139 7.701-1.004 11.288-2.506" clip-rule="evenodd"/></svg>
